X:4527
L:1/8
Q:1/8=280
M:2/2
K:D
"D" d2 d>f (a2 a>)f |"G" b2 b>g"D" a2 a2 |"A7" g2 g>e"D" f2 f>d |"A7" e2 e>c"D" d2 z2 :| 
 ug(ae)!p! ag!p! .a aa ag"D" .a2 z f d2 z f |"E7" e2 e>d"A7" c2 A2 |"D" a2 z f d2 z f | 
"E7" e2 e>d"A7" c2 A2 | a!p! aa auge"D" .d3 f a3 f |"G" b2 b>g"D" a2 a2 |"A7" g2 g>e"D" ff fd | 
"A7" e2 e>c"D" d2 z2 |]

